X: 402
T: Miss Scott of Ancrum's Reel
B: John Pringle "Collection of Reels Strathspeys & Jigs", 1801 p.40#2
Z: 2011 John Chambers <jc:trillian.mit.edu>
R: reel
M: C|
L: 1/8
K: C
V: 1
G |\
Tc2G>E C>EGE | FdEc dDDB | c>GEG ~cefa | {a}~gefd ecc :|
G |\
~c2e>c g>ce>c | (A/B/c) GE FD-DG |\
c2ec g>cec | (f/g/a) Tg>f eccG |
~c2e>c gcec | (A/B/c) G>E FDDG | TF>EFG A>cde | f<dTg>f ecc |]
V: 2 clef=bass middle=d
z | c2e2 c2c2 | d2c2 B2G2 | c2c2 d2e2 | g2G2 c2c :|
z | c2c2 e2c2 | f2e2 d2B2 | c2c2 e2c2 | f2g2 c2c2 |
    c2c2 e2c2 | f2e2 d2B2 | a3g f2^f2 | g2G2 c2c |]

%%sep 2 1 500

